X: 254
T: Timmy Clifford's
M:6/8
R:Jig
L:1/8
K:G
"G"G,B,D "C"E2D|"G"DB,D G2G,|G,B,D "C"C2B|"D" AGF "G"GDB,|
"G"G,B,D "C"E2D|"G"DB,D GAB|"D"d3 "G"~B3|1"D" AGF "G"GDB,:|"D" AGF "G"GBd||
"Em(C)"efe "G"d2B|BAG GBd|"Em(C)"efe "G"d2B|BAG "D"ABd|
"Em(C)"efe "G"d2B|BAG GBd|"C"~c3 "G"~B3|1"D" AGF "G"GBd:|2"D" AGF "G"GDB,|]


